X:4
T:The Mountain Top / Peeler Boland's (alternate version)
R:reel
M:C|
L:1/8
Z:Julie Ross
D:The Mountain Top: Tommy McCarthy "Sporting Nell"
D:Peeler Boland's: Mike & Mary Rafferty "The Road from Ballinakill"
K:G
"The Mountain Top (Tommy McCarthy's version)"
BGAG EGDE|G2Bd edgd|BGAG EGD2|B2Ac BGGA|
BGAG EGDE|G2Bd edgd|BGAG EGD2|BdAc BGGA||
|Bddg edBA|Bdea gfed|BddB d2gd|BdAc BGGA|
Bddg edBA|Bdef g3a|b2af gfed|egfa gedc||
K:G
"Peeler Boland's"
B |: cAAG A2ed | cAAB dBGB | cAAG A2ed | cABc dBGB |
cAAG A2ed | cAAf g2fg | afge fded | cABc dBGB :|
|: E2AA2BA2 | eABc dBG2 | E2AA2BA2 | BABc dBG2 |
E2AA2BA2 | edef g2fg | afge fded | cABc dBGB :|
